X:25
T:Lannigan's Ball
R:jig
S:session Auckland, NZ, 1988
Z:id:hn-jig-25
M:6/8
K:Edor
EFE G2A|B2A Bcd|DED F2G|ABA AFD|EFE G2A|B2A Bcd|edB dBA|1 BGE E2D:|2 BGE E3||
|:e2f gfe|fag fed|e2f gfe|fdB B3|e2f gfe|fag fed|edB dBA|1 BGE E3:|2 BGE E2D||
P:variations
~E3 G2A|B2A Bcd|DED F2G|AdB AFD|~E3 G2A|B2A Bcd|edB =cBA|1 BGE E2D:|2 BGE E3||
|:e2f gfe|f/g/ag fed|e2f gfe|fdB B3|e2f gfe|f/g/ag fed|edB =cBA|1 BGE E3:|2 BGE E2D||
<end>
<start>
